plugins/mcreator-themes/themes/default_dark/images/tag.svg

<svg height="32" viewBox="0 0 8.4666667 8.4666667" width="32" xmlns="http://www.w3.org/2000/svg"><g stroke-linecap="round" stroke-miterlimit="3.7"><path d="m6.4366625.2744736a1.5873891 1.5873267 0 0 0 -.9456127.45573637l-4.76113396 4.76094653a1.5873891 1.5873267 0 0 0 0 2.2456126 1.5873891 1.5873267 0 0 0 2.24570096 0l4.761134-4.7609465a1.5873891 1.5873267 0 0 0 0-2.24561263 1.5873891 1.5873267 0 0 0 -1.3000883-.45573637zm.1787876.52084157a1.0582596 1.058218 0 0 1 1.0582599 1.05821773 1.0582596 1.058218 0 0 1 -1.0582595 1.0582179 1.0582596 1.058218 0 0 1 -1.0582595-1.0582179 1.0582596 1.058218 0 0 1 1.0582591-1.05821773z" fill="#739df0" stroke-width="1.99982"/><g stroke="#fff"><path d="m1.3229165 6.3500004 3.1750003-3.1750005" stroke-width=".529166"/><path d="m2.1166668 7.1437503 2.1166668-2.1166668" stroke-width=".529167"/></g></g></svg>

<?xml version="1.0" encoding="UTF-8" standalone="no"?>
<!--
  - MCreator (https://mcreator.net/)
  - Copyright (C) 2012-2020, Pylo
  - Copyright (C) 2020-2024, Pylo, opensource contributors
  -
  - This program is free software: you can redistribute it and/or modify
  - it under the terms of the GNU General Public License as published by
  - the Free Software Foundation, either version 3 of the License, or
  - (at your option) any later version.
  -
  - This program is distributed in the hope that it will be useful,
  - but WITHOUT ANY WARRANTY; without even the implied warranty of
  - MERCHANTABILITY or FITNESS FOR A PARTICULAR PURPOSE.  See the
  - GNU General Public License for more details.
  -
  - You should have received a copy of the GNU General Public License
  - along with this program.  If not, see <https://www.gnu.org/licenses/>.
  -->

<svg
   width="32"
   height="32"
   version="1.1"
   viewBox="0 0 8.4666667 8.4666667"
   xml:space="preserve"
   id="svg3"
   sodipodi:docname="tag.svg"
   inkscape:version="1.3.2 (091e20e, 2023-11-25, custom)"
   xmlns:inkscape="http://www.inkscape.org/namespaces/inkscape"
   xmlns:sodipodi="http://sodipodi.sourceforge.net/DTD/sodipodi-0.dtd"
   xmlns="http://www.w3.org/2000/svg"
   xmlns:svg="http://www.w3.org/2000/svg"><defs
     id="defs3"><inkscape:path-effect
       effect="powerclip"
       id="path-effect2"
       is_visible="true"
       lpeversion="1"
       inverse="true"
       flatten="false"
       hide_clip="false"
       message="Use fill-rule evenodd on &lt;b&gt;fill and stroke&lt;/b&gt; dialog if no flatten result after convert clip to paths." /><inkscape:path-effect
       effect="mirror_symmetry"
       start_point="2.38125,1.8520832"
       end_point="2.38,10"
       center_point="2.380625,5.9260416"
       id="path-effect1"
       is_visible="true"
       lpeversion="1.2"
       lpesatellites=""
       mode="free"
       discard_orig_path="false"
       fuse_paths="false"
       oposite_fuse="false"
       split_items="false"
       split_open="false"
       link_styles="false" /></defs><sodipodi:namedview
     id="namedview3"
     pagecolor="#505050"
     bordercolor="#ffffff"
     borderopacity="1"
     inkscape:showpageshadow="0"
     inkscape:pageopacity="0"
     inkscape:pagecheckerboard="1"
     inkscape:deskcolor="#505050"
     inkscape:zoom="16"
     inkscape:cx="14.125"
     inkscape:cy="16.03125"
     inkscape:window-width="1920"
     inkscape:window-height="1009"
     inkscape:window-x="-8"
     inkscape:window-y="-8"
     inkscape:window-maximized="1"
     inkscape:current-layer="svg3" /><path
     id="path8"
     style="color:#000000;fill:#739df0;stroke-width:1.99982;stroke-linecap:round;stroke-miterlimit:3.7;-inkscape-stroke:none"
     d="M 6.4366625,0.2744736 A 1.5873891,1.5873267 0 0 0 5.4910498,0.73020997 L 0.72991584,5.4911565 a 1.5873891,1.5873267 0 0 0 0,2.2456126 1.5873891,1.5873267 0 0 0 2.24570096,0 l 4.761134,-4.7609465 a 1.5873891,1.5873267 0 0 0 0,-2.24561263 A 1.5873891,1.5873267 0 0 0 6.4366625,0.2744736 Z M 6.6154501,0.79531517 A 1.0582596,1.058218 0 0 1 7.67371,1.8535329 1.0582596,1.058218 0 0 1 6.6154505,2.9117508 1.0582596,1.058218 0 0 1 5.557191,1.8535329 1.0582596,1.058218 0 0 1 6.6154501,0.79531517 Z" /><path
     style="opacity:1;fill:#000000;stroke:#ffffff;stroke-width:0.529166;stroke-linecap:round;stroke-miterlimit:3.7;stroke-dasharray:none;stroke-opacity:1"
     d="M 1.3229165,6.3500004 4.4979168,3.1749999"
     id="path3"
     sodipodi:nodetypes="cc" /><path
     style="fill:#000000;stroke:#ffffff;stroke-width:0.529167;stroke-linecap:round;stroke-miterlimit:3.7;stroke-dasharray:none;stroke-opacity:1"
     d="M 2.1166668,7.1437503 4.2333336,5.0270835"
     id="path3-4"
     sodipodi:nodetypes="cc" /></svg>
